X:1
T:Title
%%score { 1 | 2 }
L:1/8
M:6/4
K:D
V:1 treble nm="Grand Piano"
V:2 bass 
V:1
 z6 z2[Q:1/4=162] [FA]4 | [FA]2 [DF]2 [FA]2- [FA]2 [Fd]4 | d2 B2 d2- d2 c2 B2 | %3
 A6 [DF]2 [EG]2 [CE]2 |[M:4/4] [A,DF]8 |[M:2/4] [DFB]4 |[M:6/4] [DFB]2 [B,DF]2 [DFB]2- [DFB]2 B4 | %7
 c2 A2 d2- d2 A4 | B2 G2 F2- F2 [CE]4 |[M:4/4] D8 |] %10
V:2
 z6 z2 [D,D]4 | [D,D]2 [D,A,]2 [D,D]2- [D,D]2 [D,A,]4 | %2
 [G,B,G]2 [G,D]2 [G,B,G]2- [G,B,G]2 [G,DG]4 | [A,DF]6[K:bass] [A,,A,]2 [A,,A,]2 [A,,A,]2 | %4
[M:4/4] D,8 |[M:2/4] B,,4 |[M:6/4] B,,2 B,,2 B,,2- B,,2 [E,^G,E]4 | %7
 [A,E]2 [G,A,E]2 [F,A,D]2- [F,A,D]2 [F,D]4 | [G,DG]2 [G,B,E]2[K:bass] [A,D]2- [A,D]2 [A,,G,]4 | %9
[M:4/4] [D,F,]8 |] %10

